symbols/web/backup_table/materialsymbolssharp/backup_table_wght300grad200_20px.svg

<svg xmlns="http://www.w3.org/2000/svg" height="20" width="20"><path d="M6.896 13.167h3.979V9.188H6.896Zm0-5.855h9.833V3.333H6.896Zm5.854 5.855h3.979V9.188H12.75Zm-7.729 1.875V1.458h13.583v13.584Zm-3.625 3.625V5.333h1.875v11.459h11.458v1.875Z"/></svg>

<svg xmlns="http://www.w3.org/2000/svg" height="20" width="20"><path d="M6.896 13.167H10.875V9.188H6.896ZM6.896 7.312H16.729V3.333H6.896ZM12.75 13.167H16.729V9.188H12.75ZM5.021 15.042V1.458H18.604V15.042ZM1.396 18.667V5.333H3.271V16.792H14.729V18.667Z"/></svg>
